assets/Woman swimming/Medium-Light/Flat/woman_swimming_flat_medium-light.svg

<svg width="32" height="32" viewBox="0 0 32 32" fill="none" xmlns="http://www.w3.org/2000/svg">
<path d="M2 12.99C3.11 11.88 4.89 11.88 6 12.99C7.11 14.1 8.89 14.1 10 12.99C11.11 11.88 12.89 11.88 14 12.99C15.11 14.1 16.89 14.1 18 12.99C19.11 11.88 20.89 11.88 22 12.99C23.11 14.1 24.89 14.1 26 12.99C27.11 11.88 28.89 11.88 30 12.99V21.94H2V12.99Z" fill="#26C9FC"/>
<path d="M18.5999 10.16C17.2899 10.03 16.4199 9.65002 16.4199 9.65002L16 9.5L14.5 10L12 11L9.90991 16.15C9.90991 16.15 10.1899 16.8 10.3399 18.06C10.4899 19.32 11.5299 20.27 12.9099 20.1C12.9099 20.1 12.8399 21.81 14.8599 22.07C16.7299 22.31 17.0499 17.4 17.0499 17.4L15.3674 12.5172L18.2751 13.7666C18.2069 13.9686 18.1699 14.185 18.1699 14.41C18.1699 15.5201 19.0698 16.42 20.1799 16.42C21.29 16.42 22.1899 15.5201 22.1899 14.41C22.1899 13.4183 21.4717 12.5943 20.527 12.4299C20.4569 11.3081 19.5206 10.2477 18.5999 10.16Z" fill="#FFF9BA"/>
<path d="M13.53 23.08H29.9C29.9 20.48 28.68 18.16 26.79 16.67L22.6 7.45C21.37 4.74 18.67 3 15.7 3H9.89999H8.77999C7.97999 3.05 7.32999 3.34 6.75999 3.91L5.11999 5.53C4.82999 5.82 4.80999 6.29 5.06999 6.6L4.92999 6.73C4.61999 7.04 4.59999 7.54 4.89999 7.86C5.19999 8.18 5.70999 8.18 6.01999 7.87H6.02999C6.06999 7.94 6.10999 8.01 6.16999 8.07C6.47999 8.38 6.97999 8.38 7.28999 8.08L7.83999 7.54C8.18999 7.19 8.66999 6.99 9.16999 7H9.88999H15.22C16.92 7 18.46 7.99 19.16 9.54L21.6 14.9C17.13 14.96 13.53 18.59 13.53 23.08Z" fill="#E4B29A"/>
<path d="M28.06 17.91C27.27 18.5 26.17 18.49 25.38 17.86L21.59 14.89V14.9C17.12 14.96 13.52 18.6 13.52 23.08H29.9C29.9 21.12 29.21 19.32 28.06 17.91Z" fill="#8B62BF"/>
<path d="M20.45 20.17C19.31 21.31 17.45 21.31 16.31 20.17L12.5 16.5L16.64 12.36L20.45 16.03C21.59 17.17 21.59 19.03 20.45 20.17Z" fill="#E4B29A"/>
<path d="M19.0101 11.8901C19.0101 12.6246 18.4146 13.2201 17.6801 13.2201C16.9456 13.2201 16.3501 12.6246 16.3501 11.8901C16.3501 11.1555 16.9456 10.5601 17.6801 10.5601C18.4146 10.5601 19.0101 11.1555 19.0101 11.8901Z" fill="#E4B29A"/>
<path d="M13.5001 17.41C13.5001 18.1445 12.9046 18.74 12.1701 18.74C11.4355 18.74 10.8401 18.1445 10.8401 17.41C10.8401 16.6754 11.4355 16.08 12.1701 16.08C12.9046 16.08 13.5001 16.6754 13.5001 17.41Z" fill="#E4B29A"/>
<path d="M14.0899 9.58997L13.9296 9.71977L16.4097 9.64002C15.6079 8.86528 14.1994 9.49039 14.0899 9.58997Z" fill="#EEBFAA"/>
<path d="M11.2499 11.89L12.9632 10.5024L11.8999 12.91C11.8999 12.91 14.8338 12.431 17.033 10.4263L18.7499 12.6C20.3499 14.34 20.1799 16.75 18.6199 18.31C17.0499 19.87 14.6499 20.04 12.9099 18.44L9.90988 16.16C9.50597 15.7414 9.73305 15.4252 9.90991 15.2037L9.90988 16.16L10.9799 16.97C11.0199 15.91 10.6699 15.1 10.6699 15.1L10.3473 14.824C10.3767 14.7658 10.4076 14.7092 10.438 14.6537C10.5919 14.372 10.7317 14.1162 10.5899 13.79L10.5199 13.63C10.4499 13.47 10.5899 13.3 10.7599 13.33C11.2806 13.4242 11.2209 13.2552 11.1199 12.9695C11.0172 12.6791 10.8718 12.268 11.2499 11.89Z" fill="#EEBFAA"/>
<path d="M9.90991 14.4509L9.79988 14.33C9.79526 14.3438 9.85029 14.4812 9.90991 14.6281V14.4509Z" fill="#EEBFAA"/>
<path d="M16.4199 9.64997L16.5054 9.75827L16.4107 9.64097L16.4199 9.64997Z" fill="#EEBFAA"/>
<path d="M14.55 14.71L15.21 15.97C15.35 16.23 15.69 16.28 15.9 16.07L16.34 15.63C16.55 15.42 16.49 15.08 16.24 14.94L14.98 14.28C14.7 14.13 14.4 14.43 14.55 14.71Z" fill="#D19479"/>
<path d="M9.90998 16.15C8.10998 14.71 7.97998 12.23 9.53998 10.67L10.93 9.27999C12.49 7.71999 15.07 7.88999 16.41 9.64999C16.41 9.64999 16.16 9.48999 12.94 12.71C9.68998 15.97 9.90998 16.15 9.90998 16.15Z" fill="#8B62BF"/>
<path d="M16.93 17.46C17.3773 17.46 17.74 17.0973 17.74 16.65C17.74 16.2026 17.3773 15.84 16.93 15.84C16.4826 15.84 16.12 16.2026 16.12 16.65C16.12 17.0973 16.4826 17.46 16.93 17.46Z" fill="#990838"/>
<path d="M17.44 10.95L16.97 10.33L16.23 11.26C15.88 11.22 15.52 11.33 15.26 11.59L14.62 12.23C14.26 12.59 14.19 13.13 14.39 13.56L13.84 14.11C13.4 13.91 12.87 13.98 12.51 14.34L11.87 14.98C11.6 15.25 11.5 15.61 11.54 15.96L10.54 16.64L11.18 17.12L11.9 16.68C12.36 17.11 13.09 17.1 13.53 16.65L14.17 16.01C14.53 15.65 14.6 15.11 14.4 14.68L14.95 14.13C15.39 14.33 15.92 14.26 16.28 13.9L16.92 13.26C17.37 12.81 17.38 12.08 16.94 11.62L17.44 10.95Z" fill="#433B6B"/>
<path d="M16.0901 13.5401L16.5401 13.0901C16.8501 12.7901 16.8501 12.2901 16.5401 11.9801C16.2401 11.6701 15.7401 11.6701 15.4301 11.9801L14.9801 12.4301C14.6701 12.7301 14.6701 13.2301 14.9801 13.5401C15.2801 13.8501 15.7801 13.8501 16.0901 13.5401Z" fill="#00A6ED"/>
<path d="M13.3801 16.25L13.8301 15.8C14.1401 15.5 14.1401 14.99 13.8301 14.69C13.5301 14.38 13.0301 14.38 12.7201 14.69L12.2701 15.14C11.9601 15.44 11.9601 15.94 12.2701 16.25C12.5701 16.56 13.0701 16.56 13.3801 16.25Z" fill="#00A6ED"/>
<path d="M2 19.98C3.11 18.87 4.89 18.87 6 19.98C7.11 21.09 8.89 21.09 10 19.98C11.11 18.87 12.89 18.87 14 19.98C15.11 21.09 16.89 21.09 18 19.98C19.11 18.87 20.89 18.87 22 19.98C23.11 21.09 24.89 21.09 26 19.98C27.11 18.87 28.89 18.87 30 19.98V28.93H2V19.98Z" fill="#0084CE"/>
</svg>

<svg xmlns="http://www.w3.org/2000/svg" width="32" height="32" fill="none"><path fill="#26C9FC" d="M2 12.99a2.819 2.819 0 0 1 4 0 2.819 2.819 0 0 0 4 0 2.819 2.819 0 0 1 4 0 2.819 2.819 0 0 0 4 0 2.819 2.819 0 0 1 4 0 2.819 2.819 0 0 0 4 0 2.819 2.819 0 0 1 4 0v8.95H2v-8.95Z"/><path fill="#FFF9BA" d="M18.6 10.16c-1.31-.13-2.18-.51-2.18-.51L16 9.5l-1.5.5-2.5 1-2.09 5.15s.28.65.43 1.91c.15 1.26 1.19 2.21 2.57 2.04 0 0-.07 1.71 1.95 1.97 1.87.24 2.19-4.67 2.19-4.67l-1.683-4.883 2.908 1.25a2.01 2.01 0 1 0 2.252-1.337c-.07-1.122-1.006-2.182-1.927-2.27Z"/><path fill="#E4B29A" d="M13.53 23.08H29.9c0-2.6-1.22-4.92-3.11-6.41L22.6 7.45A7.581 7.581 0 0 0 15.7 3H8.78c-.8.05-1.45.34-2.02.91L5.12 5.53c-.29.29-.31.76-.05 1.07l-.14.13c-.31.31-.33.81-.03 1.13.3.32.81.32 1.12.01h.01c.04.07.08.14.14.2a.8.8 0 0 0 1.12.01l.55-.54c.35-.35.83-.55 1.33-.54h6.05c1.7 0 3.24.99 3.94 2.54l2.44 5.36a8.174 8.174 0 0 0-8.07 8.18Z"/><path fill="#8B62BF" d="M28.06 17.91c-.79.59-1.89.58-2.68-.05l-3.79-2.97v.01a8.18 8.18 0 0 0-8.07 8.18H29.9c0-1.96-.69-3.76-1.84-5.17Z"/><path fill="#E4B29A" d="M20.45 20.17c-1.14 1.14-3 1.14-4.14 0L12.5 16.5l4.14-4.14 3.81 3.67c1.14 1.14 1.14 3 0 4.14Z"/><path fill="#E4B29A" d="M19.01 11.89a1.33 1.33 0 1 1-2.66 0 1.33 1.33 0 0 1 2.66 0ZM13.5 17.41a1.33 1.33 0 1 1-2.66 0 1.33 1.33 0 0 1 2.66 0Z"/><path fill="#EEBFAA" d="m14.09 9.59-.16.13 2.48-.08c-.802-.775-2.21-.15-2.32-.05ZM11.25 11.89l1.713-1.388L11.9 12.91s2.934-.479 5.133-2.484L18.75 12.6c1.6 1.74 1.43 4.15-.13 5.71-1.57 1.56-3.97 1.73-5.71.13l-3-2.28c-.404-.419-.177-.735 0-.956v.956l1.07.81c.04-1.06-.31-1.87-.31-1.87l-.323-.276c.03-.058.06-.115.091-.17.154-.282.294-.538.152-.864l-.07-.16c-.07-.16.07-.33.24-.3.52.094.46-.075.36-.36-.103-.29-.248-.702.13-1.08ZM9.91 14.45l-.11-.12c-.005.014.05.151.11.298v-.177ZM16.42 9.65l.085.108-.094-.117.009.009Z"/><path fill="#D19479" d="m14.55 14.71.66 1.26c.14.26.48.31.69.1l.44-.44c.21-.21.15-.55-.1-.69l-1.26-.66a.317.317 0 0 0-.43.43Z"/><path fill="#8B62BF" d="M9.91 16.15c-1.8-1.44-1.93-3.92-.37-5.48l1.39-1.39a3.646 3.646 0 0 1 5.48.37s-.25-.16-3.47 3.06c-3.25 3.26-3.03 3.44-3.03 3.44Z"/><path fill="#990838" d="M16.93 17.46a.81.81 0 1 0 0-1.62.81.81 0 0 0 0 1.62Z"/><path fill="#433B6B" d="m17.44 10.95-.47-.62-.74.93c-.35-.04-.71.07-.97.33l-.64.64c-.36.36-.43.9-.23 1.33l-.55.55c-.44-.2-.97-.13-1.33.23l-.64.64c-.27.27-.37.63-.33.98l-1 .68.64.48.72-.44c.46.43 1.19.42 1.63-.03l.64-.64c.36-.36.43-.9.23-1.33l.55-.55c.44.2.97.13 1.33-.23l.64-.64c.45-.45.46-1.18.02-1.64l.5-.67Z"/><path fill="#00A6ED" d="m16.09 13.54.45-.45c.31-.3.31-.8 0-1.11-.3-.31-.8-.31-1.11 0l-.45.45c-.31.3-.31.8 0 1.11.3.31.8.31 1.11 0ZM13.38 16.25l.45-.45c.31-.3.31-.81 0-1.11-.3-.31-.8-.31-1.11 0l-.45.45c-.31.3-.31.8 0 1.11.3.31.8.31 1.11 0Z"/><path fill="#0084CE" d="M2 19.98a2.819 2.819 0 0 1 4 0 2.819 2.819 0 0 0 4 0 2.819 2.819 0 0 1 4 0 2.819 2.819 0 0 0 4 0 2.819 2.819 0 0 1 4 0 2.819 2.819 0 0 0 4 0 2.819 2.819 0 0 1 4 0v8.95H2v-8.95Z"/></svg>
